X:214
T: Yinyin kun
N: C1706
O: China, Taiwan
S: IV, 638(2)]
R: Xiaodiao]
M: 2/4
L: 1/8
K: G
G2A2 | D4 | G2A2 | D4
D2EG | D2D2 | D4
G2AG | A4 | G2AG | A4
D2EG | E2ED | E4
A2D2 | A4 | A2GA | A4
A2D2 | A4 | G2AG | A4

